brandFactory_export/1.Light/Exportar_1Light.svg

<?xml version="1.0" encoding="UTF-8"?>
<svg width="24px" height="24px" viewBox="0 0 24 24" version="1.1" xmlns="http://www.w3.org/2000/svg" xmlns:xlink="http://www.w3.org/1999/xlink">
    <title>1.Light/Exportar_1Light</title>
    <g id="Symbols" stroke="none" stroke-width="1" fill="none" fill-rule="evenodd">
        <g id="1.Light/Exportar_1Light" fill="#5CB615" fill-rule="nonzero">
            <path d="M11.394958,17.3546218 L4.32268908,10.2823529 C4.03697479,10.0235294 4.01008403,9.58319328 4.26890756,9.29747899 C4.52773109,9.01176471 4.96806723,8.98487395 5.25378151,9.24369748 C5.27058824,9.2605042 5.2907563,9.27731092 5.30420168,9.29411765 L11.1831933,15.1865546 L11.1831933,0.695798319 C11.1865546,0.312605042 11.4957983,0 11.8823529,0 C12.2689076,0 12.5781513,0.312605042 12.5781513,0.695798319 L12.5781513,15.189916 L18.3462185,9.42184874 C18.6319328,9.16302521 19.0756303,9.18655462 19.3310924,9.47226891 C19.5697479,9.73781513 19.5697479,10.1411765 19.3310924,10.4067227 L12.3831933,17.3546218 C12.312605,17.4184874 12.2319328,17.4689076 12.1478992,17.5092437 C11.9798319,17.5831933 11.7882353,17.5831933 11.6201681,17.5092437 C11.5361345,17.4689076 11.4621849,17.4184874 11.394958,17.3546218 Z M22.9277311,17.189916 C23.3109244,17.189916 23.6235294,17.502521 23.6235294,17.8823529 L23.6235294,22.9277311 C23.6235294,23.3109244 23.3142857,23.6235294 22.9310924,23.6235294 L0.692436975,23.6235294 C0.309243697,23.6235294 0,23.3142857 0,22.9310924 L0,17.8857143 C0,17.502521 0.312605042,17.189916 0.695798319,17.189916 C1.0789916,17.189916 1.39159664,17.502521 1.39159664,17.8857143 L1.39159664,22.2352941 L22.2386555,22.2352941 L22.2386555,17.8857143 C22.2352941,17.4991597 22.5445378,17.189916 22.9277311,17.189916 L22.9277311,17.189916 Z" id="Exportar_1Light"></path>
        </g>
    </g>
</svg>

<svg width="24" height="24" viewBox="0 0 24 24" xmlns="http://www.w3.org/2000/svg"><path d="M11.395 17.355l-7.072-7.073a.697.697 0 11.93-1.038c.018.017.038.033.051.05l5.88 5.893V.696A.7.7 0 0111.881 0c.387 0 .696.313.696.696V15.19l5.768-5.768a.697.697 0 01.985.985l-6.948 6.948a.982.982 0 01-.235.154.655.655 0 01-.528 0 .866.866 0 01-.225-.154zm11.533-.165c.383 0 .696.313.696.692v5.046c0 .383-.31.696-.693.696H.692A.691.691 0 010 22.93v-5.045c0-.383.313-.696.696-.696.383 0 .696.313.696.696v4.35h20.847v-4.35a.687.687 0 01.689-.696z" fill="#5CB615" fill-rule="nonzero"/></svg>
